!!!OTL: Maria, die ging wohl &uuml;ber Land (Band 1), S. 39
!!!id: P0785
**kern
*clefG2
*k[]
*a:
{8e
=1
4a
8b
8a
4.g
8e
=2
4cc
8b
8a
4g}
8r
=3
{8a
=4
4b
4cc
4dd
8cc
8b
=5
4a
8g#
8g#
4a}
8r
=6
{8e
=7
4a
8b
8b
4g
8g
8e
=8
4cc
8b
8a
4g}
8r
=9
{8a
=10
4b
8cc
8cc
8dd
8dd
8cc
8b
=11
4a
4g#
4a}
8r
==
*-
!!!minrhy: 8
!!!meters: 4/4 ]  ZZ[4
!!!cut: Maria, die ging wohl &uuml;ber Land (Band 1), S. 39
!!!reg: Lothringen
!!!trd: PINCK, Louis: Verklingende Weisen, Bd 1, Metz 1928
!!!rhy1: X  X_XXX_.X  X_XXX_0
!!!rhy2: X  X_X_X_XX  X_XXX_0
!!!key: P0785  08  A 4/4 ]  ZZ[4
!!!mod: HEPTATONIK MOLL ?]  AMBITUS[7b
!!!kad: -7b1-7b1
!!!akz: 1-7b3b-7b_2411_1-7b3b-7b_2411_
!!!fot: 'a__b__av_bv_
!!!for: 'a__b__c__d__
!!!fok: '^a_^__^a_^__
!! PHRAS[AUFTAKTIG]
!!!fkt: geistliche, religiöse Lieder
!! LOTH VKL
!! PR[18] 2K[3] 2G[13] 3K[3] 3G[0] 4A[15] 4Ü[0] 5A[0] 6K[0] 6G[0]
!! 7K[0] 7G[0] 8A[0] MEHR[0] SI[33] ABS[39] SR[15] SP[18]
!! ST[0] 2k[10] 2g[26] 3k[3] 3g[3] 4d[8] 4ü[0] 5d[0] 6k[0] 6g[0]
!! 7k[0] 7g[0] 8d[0] mehr[0] si[49] dm[-16] sr[36] sp[13]
!! 1F[68] 2F[33] 3F[0] 4F[0] LF[0] 2P[0] 3P[0] 4P[0] TRI[0] DF[2] AB[40]
!! TF[0] U3K[0] U3[0] U4[0] U4Ü[0] U5[3] U6K[0] U6[0] U7K[0] U7[3]
!! N1[18] N2K[0] N2[28] N3K[0] N3[13] N4[15] N4Ü[0] N5[23] N6K[0] N6[0]
!!!n7k: 0] N7[0] O1[0] O2K[0] O2[0] O3K[0] O3[0] HÖ[0
!!!RNB: symbol: &uuml;  = u umlaut (UTF-8: Ã¼)
